img/about-me/snippet/Star-nofill.svg

<svg width="19" height="19" viewBox="0 0 19 19" fill="none" xmlns="http://www.w3.org/2000/svg">
<g clip-path="url(#clip0_64_1660)">
<path d="M9.06024 14.2044L3.77049 17.1654L4.95174 11.2194L0.500488 7.1034L6.52074 6.3894L9.06024 0.884399L11.5997 6.3894L17.62 7.1034L13.1687 11.2194L14.35 17.1654L9.06024 14.2044ZM9.06024 12.4854L12.2455 14.2681L11.5337 10.6884L14.2135 8.20965L10.5887 7.7799L9.06024 4.46565L7.53174 7.78065L3.90699 8.20965L6.58674 10.6884L5.87499 14.2681L9.06024 12.4854Z" fill="#607B96"/>
</g>
<defs>
<clipPath id="clip0_64_1660">
<rect width="18" height="18" fill="white" transform="translate(0.0600586 0.0249023)"/>
</clipPath>
</defs>
</svg>

<svg width="19" height="19" fill="none" xmlns="http://www.w3.org/2000/svg"><g clip-path="url(#clip0_64_1660)"><path d="M9.06 14.204l-5.29 2.961 1.182-5.946L.5 7.103l6.02-.714L9.06.884 11.6 6.39l6.02.714-4.451 4.116 1.181 5.946-5.29-2.96zm0-1.719l3.185 1.783-.711-3.58 2.68-2.478-3.625-.43L9.06 4.466 7.532 7.78l-3.625.429 2.68 2.478-.712 3.58 3.185-1.783z" fill="#607B96"/></g><defs><clipPath id="clip0_64_1660"><path fill="#fff" transform="translate(.06 .025)" d="M0 0h18v18H0z"/></clipPath></defs></svg>
